icons/speech-bubble-star.svg

<svg xmlns="http://www.w3.org/2000/svg" width="24" height="24" viewBox="0 0 24 24">
  <path d="M15,3 C19.5522847,3 23,6.44771525 23,11 C23,15.5522847 19.5522847,19 15,19 L15,19 L14.492,19 L14.4215793,19.0906275 C13.7103901,19.9663638 12.948642,20.6393906 11.8907103,21.256749 L11.8907103,21.256749 L11.5946555,21.4238497 L11.2369286,21.6140163 L10.9086251,21.7821926 C9.57755795,22.4597178 8,21.4937799 8,20 L8,20 L8,19 C4.27285013,19 1,15.3634999 1,11 C1,6.5377729 4.49099359,3 9,3 L9,3 Z M12.2212829,7.18140769 C11.973656,7.05919655 11.6738431,7.16086605 11.551632,7.40849288 L11.551632,7.40849288 L10.6774832,9.17971176 L8.72282709,9.46373992 C8.61400857,9.47955217 8.51343737,9.53079576 8.43668307,9.60953758 C8.24393246,9.80727937 8.24797861,10.123836 8.4457204,10.3165866 L8.4457204,10.3165866 L9.86012284,11.6952882 L9.52622772,13.6420462 C9.50763929,13.750425 9.52529663,13.861909 9.57646617,13.9592393 C9.70496657,14.2036616 10.0072801,14.2976348 10.2517024,14.1691344 L10.2517024,14.1691344 L12,13.25 L13.7482976,14.1691344 C13.8456278,14.220304 13.9571118,14.2379613 14.0654907,14.2193729 C14.3376589,14.1726924 14.5204528,13.9142144 14.4737723,13.6420462 L14.4737723,13.6420462 L14.1398772,11.6952882 L15.5542796,10.3165866 C15.6330214,10.2398323 15.684265,10.1392611 15.7000773,10.0304426 C15.7397861,9.75717015 15.5504453,9.50344873 15.2771729,9.46373992 L15.2771729,9.46373992 L13.3225168,9.17971176 L12.448368,7.40849288 C12.3997029,7.30988657 12.3198892,7.23007281 12.2212829,7.18140769 Z"/>
</svg>

<svg xmlns="http://www.w3.org/2000/svg" viewBox="0 0 24 24">
  <path d="M15 3c4.55 0 8 3.45 8 8s-3.45 8-8 8h-.5l-.08.1a8.85 8.85 0 0 1-2.53 2.16l-.3.16-.35.2-.33.16A2 2 0 0 1 8 20v-1c-3.73 0-7-3.64-7-8 0-4.46 3.5-8 8-8zm-2.78 4.18a.5.5 0 0 0-.67.23l-.87 1.77-1.96.28a.5.5 0 0 0-.27.86l1.41 1.38-.33 1.94a.5.5 0 0 0 .72.53l1.75-.92 1.75.92a.5.5 0 0 0 .72-.53l-.33-1.94 1.41-1.38a.5.5 0 0 0-.27-.86l-1.96-.28-.87-1.77a.5.5 0 0 0-.23-.23z"/>
</svg>
